Numix-GalliumOS/16/devices/multimedia-player.svg

<?xml version="1.0" encoding="UTF-8" standalone="no"?>
<svg
   xmlns:dc="http://purl.org/dc/elements/1.1/"
   xmlns:cc="http://creativecommons.org/ns#"
   xmlns:rdf="http://www.w3.org/1999/02/22-rdf-syntax-ns#"
   xmlns:svg="http://www.w3.org/2000/svg"
   xmlns="http://www.w3.org/2000/svg"
   xmlns:sodipodi="http://sodipodi.sourceforge.net/DTD/sodipodi-0.dtd"
   xmlns:inkscape="http://www.inkscape.org/namespaces/inkscape"
   width="16"
   height="16"
   viewBox="0 0 16 16"
   id="svg2"
   version="1.1"
   inkscape:version="0.91 r"
   sodipodi:docname="music-player.svg">
  <metadata
     id="metadata10">
    <rdf:RDF>
      <cc:Work
         rdf:about="">
        <dc:format>image/svg+xml</dc:format>
        <dc:type
           rdf:resource="http://purl.org/dc/dcmitype/StillImage" />
        <dc:title />
      </cc:Work>
    </rdf:RDF>
  </metadata>
  <defs
     id="defs8" />
  <sodipodi:namedview
     pagecolor="#ffffff"
     bordercolor="#666666"
     borderopacity="1"
     objecttolerance="10"
     gridtolerance="10"
     guidetolerance="10"
     inkscape:pageopacity="0"
     inkscape:pageshadow="2"
     inkscape:window-width="1920"
     inkscape:window-height="1056"
     id="namedview6"
     showgrid="true"
     showguides="false"
     inkscape:guide-bbox="true"
     inkscape:zoom="22.627416"
     inkscape:cx="17.185514"
     inkscape:cy="4.031122"
     inkscape:window-x="0"
     inkscape:window-y="24"
     inkscape:window-maximized="1"
     inkscape:current-layer="svg2">
    <inkscape:grid
       type="xygrid"
       id="grid2998" />
    <sodipodi:guide
       orientation="1,0"
       position="16,5.3898305"
       id="guide3000" />
  </sodipodi:namedview>
  <rect
     style="opacity:1;fill:#93a1a1;fill-opacity:1;fill-rule:nonzero;stroke:none;stroke-width:1.5;stroke-linecap:round;stroke-linejoin:miter;stroke-miterlimit:4;stroke-dasharray:none;stroke-dashoffset:0;stroke-opacity:1"
     id="rect4140"
     width="8"
     height="16"
     x="4"
     y="-2e-08"
     rx="1.6666666"
     ry="1.6666666" />
  <circle
     style="opacity:1;fill:#657b83;fill-opacity:1;fill-rule:nonzero;stroke:none;stroke-width:1.5;stroke-linecap:round;stroke-linejoin:miter;stroke-miterlimit:4;stroke-dasharray:none;stroke-dashoffset:0;stroke-opacity:1"
     id="path4142"
     cx="8"
     cy="12"
     r="3" />
  <circle
     style="fill:#073642;fill-opacity:0.40963859;stroke:none"
     id="path3809"
     cx="8"
     cy="12"
     r="1" />
  <rect
     rx="1"
     ry="1"
     y="1"
     x="5"
     height="7"
     width="6"
     id="rect4150"
     style="fill:#78b9e7;fill-opacity:1;stroke:none" />
  <path
     inkscape:connector-curvature="0"
     style="fill:#fdf6e3;fill-opacity:0.25301208;stroke:none;stroke-width:1px;stroke-linecap:butt;stroke-linejoin:miter;stroke-opacity:1"
     d="m 8.4466147,1 -1.375,6.9999999 2.9283853,0 c 0.554,0 1,-0.4257273 1,-0.9545455 l 0,-5.090909 C 11,1.4257273 10.554,1 10,1 L 8.4466147,1 Z"
     id="path3786" />
  <path
     inkscape:connector-curvature="0"
     style="fill:#fdf6e3;fill-opacity:0.23694781;stroke:none"
     d="M 10,-2e-8 10,16 10.333333,16 C 10.571041,16 10.795765,15.9496 11,15.860677 L 11,0.13932291 C 10.795765,0.05040165 10.571041,-2e-8 10.333333,-2e-8 L 10,-2e-8 Z"
     id="rect3811" />
</svg>

<svg xmlns="http://www.w3.org/2000/svg" viewBox="0 0 16 16">
 <rect width="8" height="16" x="4" rx="1.667" style="fill:#93a1a1;opacity:1;fill-opacity:1;stroke:none;fill-rule:nonzero"/>
 <circle cx="8" cy="12" r="3" style="fill:#657b83;opacity:1;fill-opacity:1;stroke:none;fill-rule:nonzero"/>
 <circle cx="8" cy="12" r="1" style="fill:#073642;fill-opacity:0.41;stroke:none"/>
 <rect rx="1" y="1" x="5" height="7" width="6" style="fill:#78b9e7;fill-opacity:1;stroke:none"/>
 <path d="m 8.447 1 -1.375 7 2.928 0 c 0.554 0 1 -0.426 1 -0.955 l 0 -5.091 c 0 -0.529 -0.446 -0.955 -1 -0.955 l -1.553 0" style="fill:#fdf6e3;fill-opacity:0.253;stroke:none"/>
 <path d="m 10 0 0 16 0.333 0 c 0.238 0 0.462 -0.05 0.667 -0.139 l 0 -15.721 c -0.204 -0.089 -0.429 -0.139 -0.667 -0.139 l -0.333 0" style="fill:#fdf6e3;fill-opacity:0.237;stroke:none"/>
</svg>
